X:1
T:Sepulto Domino
T:Tenebrae Responsories Responsorium IX
T:Tomas Luis de Victoria
C:Tomas Luis de Victoria
%%score 1 2 3 4
L:1/8
Q:1/4=82
M:2/2
K:F
V:1 treble nm="Cantus" snm="C."
V:2 treble nm="Altus" snm="A."
V:3 treble-8 nm="Tenor" snm="T."
V:4 bass nm="Bassus" snm="B."
V:1
 z4 d4- | d4 d4 | c4 B4- | B2 A2 A4 | z2 A2 B2 c2 | d4 B4 | G4 F4 | F8 | z4 z2 B2 | B2 A2 B2 c2 | %10
w: Se|* pul|to~ Do|* mi no~|si gna tum~|est~ mo|nu men|tum,~|vol|ven tes~ la pi|
 d4 z2 d2 | d2 d2 d4 | d6 d2 | c8 | =B8 ||S d4 d2 d2 | f3 e d2 c2 | d2 _e2- ed d2- | d2 c2 d4- | %19
w: dem~ ad~|os ti um~|mo nu|men|ti:~|Po nen tes~|mi * * *||* li tes,~|
 d4 z4 | z8 | z2 A2 A2 A2 | BcdB cd _e2- | e2 d2 _e4 | d8!fine! || z8 | z8 | z8 | z8 | z8 | z8 | %31
w: ||qui~ cus to|di- * * * * * *|* rent~ il-|lum.~|||||||
 z8 | z8 | z8 | z8 | z8 | z8 || d4 d2 d2 | f3 e d2 c2 | d2 _e2- ed d2- | d2 c2 d4- | d4 z4 | z8 | %43
w: ||||||Po nen tes~|mi * * *||* li tes,~|||
 z2 A2 A2 A2 | BcdB cd _e2- | e2 d2 _e4 | d8!D.C.! |] %47
w: qui~ cus to|di * * * * * *|* rent~ il|lum.~|
V:2
 G8 | B8 | A4 G4- | G2 ^F2 F4 | z2"^" ^F2 G2 A2 | B2 B,4 D2 | _E4 C4 | D4 z4 | z4 z2 G2 | %9
w: Se|pul|to~ Do|* mi no~|si gna tum~|est~ mo nu|men *|tum,~|vol|
 G2 ^F2 G2 A2 | B2 G2 B4 | B2 A2 A4 | B6 B2 | A2 G4 ^F2 | G8 || z8 | A4 A2 A2 | =B2 c2 A4 | %18
w: ven tes~ la pi|dem~ ad~ os|* ti um~|mo nu|men * *|ti:~||Po nen tes~|mi li tes,~|
 z2 G2 G2 G2 | B3 A G2 F2 | G2 A2- AG G2- | G2 ^FE F4 | G8- | G8- | G8 || z8 | z8 | z8 | z8 | z8 | %30
w: qui~ cus to|di * * *|rent~ il~- * * *||lum.~||||||||
 z8 | z8 | z8 |"^Solo" E4 F2 D2 | GFED C2 D2 | _E2 D4 C2 | D8 || z8 | A4 A2 A2 | =B2 c2 A4 | %40
w: |||pe ti e|* * * * * runt~|il * *|lum.~||Po nen tes~|mi li tes,~|
 z2 G2 G2 G2 | B3 A G2 F2 | G2 A2- AG G2- | G2 ^FE F4 | G8- | G8- | G8 |] %47
w: qui~ cus to|di * * *|rent~ il~ * * *||lum.~|||
V:3
 z4 g4- | g4 f4 | f4 d4- | d2 d2 d4 | z2 d2 d2 f2 | f2 d4 B2 | c2 B4 A2 | B2 d2 d2 c2 | d2 _e2 d4 | %9
w: Se|* pul|to~ Do|* mi no~|si gna tum~|est~ mo nu|men * *|tum,~ vol ven tes~|la pi dem~|
 z8 | z2 d2 g4- | g2 ^f2 f4 | g4 f2 f2- | f2 ed c4 | d8 || z4 d4 | d2 d2 f3 e | d2 c2 d4 | %18
w: |ad~ os|* ti um~|mo nu men||ti:~|Po|nen tes~ mi *||
 _e4 d2 B2 | B2 B2 d3 c | B2 A2 BcdB | c4 A2 d2 | d2 d2 _e3 d | c2 =B2 c4- | c2 =B2 B4 || %25
w: li tes,~ qui~|cus to di *|* rent~ il * * *|* lum~ qui~|cus to di- *|* rent~ il-|* * lum.~|
"^Solo" d8 | e4 f4 | d4 z2 g2- | g2 g2 e4 | f6 f2 | f4 d2 f2- | f2 ed c2 d2 | e2 f2- fe d2- | %33
w: Ac|cen den|tes~ prin|* ci pes~|sa cer|do tum~ ad~|* * * * Pi|la * * * *|
 d2 _d2 =d4 | z2 G2 A4 | B2 B2 G4 | A8 || z4 d4 | d2 d2 f3 e | d2 c2 d4 | _e4 d2 B2 | B2 B2 d3 c | %42
w: * * tum~|pe ti|e runt~ il|lum.~|Po|nen tes~ mi *||li tes,~ qui~|cus to di *|
 B2 A2 BcdB | c4 A2 d2 | d2 d2 _e3 d | c2 =B2 c4- | c2 =B2 B4 |] %47
w: * rent~ il * * *|* lum~ qui~|cus to di *|* rent~ il|* * lum.~|
V:4
 z4 G,4- | G,4 B,4 | F,4 G,4- | G,2 D,2 D,4 | z2 D,2 G,2 F,2 | B,4 G,4 | _E,4 F,4 | %7
w: Se|* pul|to~ Do|* mi no~|si gna tum~|est~ mo|nu men|
 B,,2 B,2 B,2 A,2 | B,2 C2 D2 G,2 | D3 C B,2 A,2 | G,4 z2 G,2 | D2 D2 D4 | G,4 B,4 | C3 B, A,4 | %14
w: tum,~ vol ven tes~|la pi dem~ vol|ven tes~ la pi|dem~ ad~|os ti um~|mo nu|men * *|
 G,8 || z8 | z8 | z8 | z4 G,4 | G,2 G,2 B,3 A, | G,2 ^F,2 G,4 | A,4 D,2 D,2 | G,2 G,2 C,4- | %23
w: ti:~||||qui|cu- sto- di- *|* rent il-|* lum, qui~|cus to di-|
 C,2 G,2 C,4 | G,8 || z4"^Solo" G,4- | G,4 A,4 | B,4 G,4 | C6 C2 | A,4 B,4- | B,2 B,2 B,4 | %31
w: * rent~ il-|lum.~|Ac|* cen|den tes~|prin ci|pes~ sa|* cer do|
 G,2 C4 B,A, | G,2 A,2 B,4 | A,4 z2 D,2 | E,4 F,2 D,2 | G,3 F, _E,4 | D,8 || z8 | z8 | z8 | %40
w: tum~ ad~ * *|* Pi la|tum~ pe|ti e runt~|il * *|lum.~||||
 z4 G,4 | G,2 G,2 B,3 A, | G,2 ^F,2 G,4 | A,4 D,2 D,2 | G,2 G,2 C,4- | C,2 G,2 C,4 | G,8 |] %47
w: Po|nen tes~ mi *||li tes,~ qui~|cus to di|* rent~ il|lum.~|

